X: 14686
T: Gan Ainm
R: polka
M: 2/4
K: Dmajor
|:A>G FG|Ad de/d/|cA GE|EF G2|
A>G FG|Ad de/d/|cA GE|ED D2:|
|:d>e fe|dc AB|cA GE|EF G2|
d>e fe|dc AB|cA GE|ED D2:|

